X:209
T:Jefferson and Liberty
S:Lissa Schneckenburger - Dance
Z:robin.beech@mcgill.ca
R:jig
M:6/8
L:1/8
K:Ador
c2A AGA | E2A ABc | B2F GBc | dBG GAG |
c2A AGA | E2A Acd | edc B2B | cAA A2B ::
A2B c2d | e2f g3 |  e2f g2e | dBG GAG |
A2B c2d | efg a3 | edc B2B | cAA A2B :|
